images_breeze_svg/cmd/32/sendtoback.svg

<svg viewBox="0 0 32 32" xmlns="http://www.w3.org/2000/svg"><path d="m8 5v18.085938l-3.7929687-3.792969-.7070313.707031 4 4 1 1 .9999995-1 4.0000005-4-.707032-.707031-3.792968 3.792969v-18.085938zm7 0v1h13v-1zm0 7v1h13v-1zm0 8v1h13v-1zm-11 7v1h24v-1z" fill="#4d4d4d"/></svg>

<?xml version="1.0" encoding="UTF-8" standalone="no"?>
<svg
   xmlns:dc="http://purl.org/dc/elements/1.1/"
   xmlns:cc="http://creativecommons.org/ns#"
   xmlns:rdf="http://www.w3.org/1999/02/22-rdf-syntax-ns#"
   xmlns:svg="http://www.w3.org/2000/svg"
   xmlns="http://www.w3.org/2000/svg"
   xmlns:sodipodi="http://sodipodi.sourceforge.net/DTD/sodipodi-0.dtd"
   xmlns:inkscape="http://www.inkscape.org/namespaces/inkscape"
   viewBox="0 0 32 32"
   version="1.1"
   id="svg4"
   sodipodi:docname="sendtoback.svg"
   inkscape:version="0.92.4 (unknown)"
   inkscape:export-filename="/home/rizmut/Dokumen/Rizmut/Github/tmp/breeze/cmd/32/sendtoback.png"
   inkscape:export-xdpi="96"
   inkscape:export-ydpi="96">
  <metadata
     id="metadata10">
    <rdf:RDF>
      <cc:Work
         rdf:about="">
        <dc:format>image/svg+xml</dc:format>
        <dc:type
           rdf:resource="http://purl.org/dc/dcmitype/StillImage" />
      </cc:Work>
    </rdf:RDF>
  </metadata>
  <defs
     id="defs8" />
  <sodipodi:namedview
     pagecolor="#ffffff"
     bordercolor="#666666"
     borderopacity="1"
     objecttolerance="10"
     gridtolerance="10"
     guidetolerance="10"
     inkscape:pageopacity="0"
     inkscape:pageshadow="2"
     inkscape:window-width="1360"
     inkscape:window-height="714"
     id="namedview6"
     showgrid="true"
     inkscape:zoom="10.429825"
     inkscape:cx="7.8220635"
     inkscape:cy="13.993367"
     inkscape:window-x="0"
     inkscape:window-y="28"
     inkscape:window-maximized="1"
     inkscape:current-layer="svg4">
    <inkscape:grid
       type="xygrid"
       id="grid817" />
  </sodipodi:namedview>
  <path
     d="M 8,5 V 23.085938 L 4.2070313,19.292969 3.5,20 l 4,4 1,1 L 9.4999995,24 13.5,20 12.792968,19.292969 9,23.085938 V 5 Z m 7,0 V 6 H 28 V 5 Z m 0,7 v 1 h 13 v -1 z m 0,8 v 1 H 28 V 20 Z M 4,27 v 1 h 24 v -1 z"
     id="path2"
     inkscape:connector-curvature="0"
     style="fill:#4d4d4d"
     sodipodi:nodetypes="cccccccccccccccccccccccccccccccc" />
</svg>
